X: 0
T: The Kid On The Mountain
C: Trad
M: 9/8
L: 1/8
K: Emin
|: "Em"E3 FEF "D"G2 F | "Em"E2E "Am"BcA BGE | "Em"EDE "D"FEF "G"G2 A | BAG "D"FAG FED :|
|: "G"BGB "D"AFA "G"G2 D | GAB dge dBA | "Em/G"BGB "D/F#"AFA "G"G2 A | BAG "D"FAG FED :|
|: "Em"g3 eBe e2 f | g2g efg "D"afd | "Em"gag eBe "D"e2 g/a/ | "G"bag "Bm"fag fed :|
|: "Em"eBB e2f "D"g3 | "Em"eBB efg "D"afd | "Em"eBB e2f g2 a | "G"bag fag "D"fed :|
|: "Em"edB "D"dBA "G"G3 | GAB dge dBA | "Em"edB "D/F#"dBA "G"G2A | BAG "D"FAG FED :|